X: 299
T: John Doherty's
R: mazurka
M: 3/4
L: 1/8
K: Amaj
|: AB cd cE | Ac ea ec | df B2 Ba | gf fe e2 |
EA cd cE | Ac ea ec | df Bc BA | GB A2 AE :|
Ac e2 ec | (3efg a2 ab | (3agf e2 ea | (3gfe d2 dg | (3fed c2 cB | 
Ac e2 ec | (3efg a2 ab | (3agf e2 ea | (3gfe d2 cB | cd e2 B2 ||
e^d eB ge | fa fB ^df | e^d eB ge | fa fB ^df | e2 ef de ||
|: cd BA eA | cd BA eA | Bc B=G dG | Bd B=G dG |
cd BA eA | cd BA eA | GA Bc (3dBG |[1 A2 A2 ed :|[2 A2 A2 |]
F: https://thesession.org/tunes/2497#setting15797

